X: 1480
T: Gervasoni Polka Mazurka
B: australian traditional tunes wiki
M:3/4
L:1/8
R: Polka Mazurka
Q: 1/4=100
K:C
V:1 
|:"C"g>d c>G G>c|"G7"B2A4|f>cB2 (3ABA |"C"G6|g>e c>G G>c|"G7"B2A2A2|f>d B2A>B|"C"c6:|
|:"C"E2G3E|"F"F2A4|"G7"B2A2 (3ABA|"C"G6|e2e2e2|"G7"f>dB2 (3ABA|G2A2B2|"C"c6:|
% abcbook-tune_id 6342d53a0c1181c3ed25ceaa


% abcbook-boost 0
% abcbook-tablature 
% abcbook-transpose 
% abcbook-lastupdated 1665324367159
% abcbook-soundfonts 
% abcbook-repeats 1
% NFF Book 2016

